src/resources/flags/it.svg

<svg height="336" viewBox="0 0 512 336" width="512" xmlns="http://www.w3.org/2000/svg"><g fill="none"><path d="m170.667 335.724h-161.839a8.829 8.829 0 0 1 -8.828-8.828v-317.793a8.829 8.829 0 0 1 8.828-8.828h161.839z" fill="#73af00"/><path d="m170.67.276h170.67v335.448h-170.67z" fill="#f5f5f5"/><path d="m503.172 335.724h-161.839v-335.448h161.839a8.829 8.829 0 0 1 8.828 8.828v317.793a8.828 8.828 0 0 1 -8.828 8.827z" fill="#ff4b55"/></g></svg>

<svg width="512" height="336" viewBox="0 0 512 336" xmlns="http://www.w3.org/2000/svg">
  <g fill="none">
    <path d="M170.667 335.724H8.828A8.829 8.829 0 0 1 0 326.896V9.103A8.829 8.829 0 0 1 8.828.275h161.839v335.449z" fill="#73AF00"/>
    <path fill="#F5F5F5" d="M170.67.276h170.67v335.448H170.67z"/>
    <path d="M503.172 335.724H341.333V.276h161.839A8.829 8.829 0 0 1 512 9.104v317.793a8.828 8.828 0 0 1-8.828 8.827z" fill="#FF4B55"/>
  </g>
</svg>
